!!!OTL: "Gunhilde" GUNHILDE LEBT' GAR STILLE
!!!ARE: Europa, Mitteleuropa, Deutschland, Niederrhein
!!!SCT: Z1046
!!!YEM: Copyright 1995, estate of Helmut Schaffrath.
**kern
*ICvox
*Ivox
*M2/4
*k[f#]
*G:
{8d
=1
8.b
16b
8.a
16a
=2
8g
16g
16g
8f#}
{8d
=3
8g
8g
8a
8a
=4
4b
8r}
{8b
=5
8b
16cc
16b
8b
8ee
=6
8ee
16dd
16cc
8b}
{8a
=7
8g
16f#
16e
8f#
8g
=8
4e
8r}
{8b
=9
8b
16cc
16b
8b
8ee
=10
8ee
16dd
16cc
8b}
{8a
=11
8g
16f#
16e
8f#
8g
=12
4e
8r}
==
!!!AGN: Romanze, Ballade
!! Modulation
!!!ONB: ESAC (Essen Associative Code) Database: ZUCCAL
!!!AMT: simple duple
!!!AIN: vox
!!!EED: Helmut Schaffrath
!!!EEV: 1.0
*-
